images/d-nose-hover.svg

<svg fill="none" height="221" viewBox="0 0 125 221" width="125" xmlns="http://www.w3.org/2000/svg"><path clip-rule="evenodd" d="m83.7067.00012863 40.3753 150.68487137-9.659 2.588 6.212 23.182-9.659 2.588 3.105 11.591-9.659 2.588 2.33 8.694-14.4894 3.882 1.2941 4.83-37.6711 10.094-1.2941-4.83-13.523 3.623-3.1058-11.591-18.3526 4.918-4.1411-15.455-8.69331 2.329-5.952833-22.216 34.773343-9.317 3.8823 14.489 5.7955-1.553 2.0706 7.727 37.6711-10.094-2.847-10.625 4.8296-1.294-1.5529-5.796-1.5529-5.795-38.8229-144.8891z" fill="#ff512f" fill-rule="evenodd"/></svg>

<svg width="125" height="221" viewBox="0 0 125 221" fill="none" xmlns="http://www.w3.org/2000/svg">
<path fill-rule="evenodd" clip-rule="evenodd" d="M83.7067 0.000128627L124.082 150.685L114.423 153.273L120.635 176.455L110.976 179.043L114.081 190.634L104.422 193.222L106.752 201.916L92.2626 205.798L93.5567 210.628L55.8856 220.722L54.5915 215.892L41.0685 219.515L37.9627 207.924L19.6101 212.842L15.469 197.387L6.77569 199.716L0.822857 177.5L35.5962 168.183L39.4785 182.672L45.274 181.119L47.3446 188.846L85.0157 178.752L82.1687 168.127L86.9983 166.833L85.4454 161.037L83.8925 155.242L45.0696 10.3529L83.7067 0.000128627Z" fill="#FF512F"/>
</svg>
